resources/haticons/SVG/ramen_dining.svg

<!-- Generated by IcoMoon.io -->
<svg version="1.1" xmlns="http://www.w3.org/2000/svg" width="24" height="24" viewBox="0 0 24 24">
<title>ramen_dining</title>
<path d="M21.984 3l-12 1.406v1.594h12v0.984h-12v5.016h12q0 2.719-1.664 4.945t-4.336 3.305v1.734h-7.969v-1.734q-2.672-1.078-4.336-3.305t-1.664-4.945h3v-8.016l16.969-1.969v0.984zM6 4.875v1.125h0.984v-1.219zM6 6.984v5.016h0.984v-5.016h-0.984zM9 12v-5.016h-0.984v5.016h0.984zM9 6v-1.453l-0.984 0.094v1.359h0.984z"></path>
</svg>

<svg xmlns="http://www.w3.org/2000/svg" width="24" height="24"><path d="M21.984 3l-12 1.406V6h12v.984h-12V12h12q0 2.719-1.664 4.945t-4.336 3.305v1.734H8.015V20.25q-2.672-1.078-4.336-3.305T2.015 12h3V3.984l16.969-1.969v.984zM6 4.875V6h.984V4.781zm0 2.109V12h.984V6.984H6zM9 12V6.984h-.984V12H9zm0-6V4.547l-.984.094V6H9z"/></svg>
